X:1
T: Greenwoodside
T: Version 2
R:Reel
Q: 232
K:D
M:4/4
L:1/8
|:f|BB Bc B2 A2|Bc de f4|e3f ef ed|c2 A2 A2 f2|
BB Bc B2 A2|Bc de f4|e2 a2 f2 ef|1d2 B2 B2 f2:|2d2 B2 B2 de|
f4 B2 f2|BB Bd f4|e3f ef ed|c2 A2 A2 de|
f4 B2 f2|BB Bd f4|e2 a2 f2 ef|d2 B2 B2 de|
f4 B2 f2|BB Bd f4|e3f ef ed|c2 A2 A2 f2|
BB Bc B2 A2|Bc de f4|e2 a2 f2 ef|d2 B2 B2||
